resources/svg/team-line.svg

<svg fill="currentColor" viewBox="0 0 24 24" xmlns="http://www.w3.org/2000/svg"><path d="M12 11C14.7614 11 17 13.2386 17 16V22H15V16C15 14.4023 13.7511 13.0963 12.1763 13.0051L12 13C10.4023 13 9.09634 14.2489 9.00509 15.8237L9 16V22H7V16C7 13.2386 9.23858 11 12 11ZM5.5 14C5.77885 14 6.05009 14.0326 6.3101 14.0942C6.14202 14.594 6.03873 15.122 6.00896 15.6693L6 16L6.0007 16.0856C5.88757 16.0456 5.76821 16.0187 5.64446 16.0069L5.5 16C4.7203 16 4.07955 16.5949 4.00687 17.3555L4 17.5V22H2V17.5C2 15.567 3.567 14 5.5 14ZM18.5 14C20.433 14 22 15.567 22 17.5V22H20V17.5C20 16.7203 19.4051 16.0796 18.6445 16.0069L18.5 16C18.3248 16 18.1566 16.03 18.0003 16.0852L18 16C18 15.3343 17.8916 14.694 17.6915 14.0956C17.9499 14.0326 18.2211 14 18.5 14ZM5.5 8C6.88071 8 8 9.11929 8 10.5C8 11.8807 6.88071 13 5.5 13C4.11929 13 3 11.8807 3 10.5C3 9.11929 4.11929 8 5.5 8ZM18.5 8C19.8807 8 21 9.11929 21 10.5C21 11.8807 19.8807 13 18.5 13C17.1193 13 16 11.8807 16 10.5C16 9.11929 17.1193 8 18.5 8ZM5.5 10C5.22386 10 5 10.2239 5 10.5C5 10.7761 5.22386 11 5.5 11C5.77614 11 6 10.7761 6 10.5C6 10.2239 5.77614 10 5.5 10ZM18.5 10C18.2239 10 18 10.2239 18 10.5C18 10.7761 18.2239 11 18.5 11C18.7761 11 19 10.7761 19 10.5C19 10.2239 18.7761 10 18.5 10ZM12 2C14.2091 2 16 3.79086 16 6C16 8.20914 14.2091 10 12 10C9.79086 10 8 8.20914 8 6C8 3.79086 9.79086 2 12 2ZM12 4C10.8954 4 10 4.89543 10 6C10 7.10457 10.8954 8 12 8C13.1046 8 14 7.10457 14 6C14 4.89543 13.1046 4 12 4Z"/></svg>

<svg xmlns="http://www.w3.org/2000/svg" viewBox="0 0 24 24" fill="currentColor">
    <g>
        <path fill="none" d="M0 0h24v24H0z"/>
        <path fill-rule="nonzero" d="M12 11a5 5 0 0 1 5 5v6h-2v-6a3 3 0 0 0-2.824-2.995L12 13a3 3 0 0 0-2.995 2.824L9 16v6H7v-6a5 5 0 0 1 5-5zm-6.5 3c.279 0 .55.033.81.094a5.947 5.947 0 0 0-.301 1.575L6 16v.086a1.492 1.492 0 0 0-.356-.08L5.5 16a1.5 1.5 0 0 0-1.493 1.356L4 17.5V22H2v-4.5A3.5 3.5 0 0 1 5.5 14zm13 0a3.5 3.5 0 0 1 3.5 3.5V22h-2v-4.5a1.5 1.5 0 0 0-1.356-1.493L18.5 16c-.175 0-.343.03-.5.085V16c0-.666-.108-1.306-.309-1.904.259-.063.53-.096.809-.096zm-13-6a2.5 2.5 0 1 1 0 5 2.5 2.5 0 0 1 0-5zm13 0a2.5 2.5 0 1 1 0 5 2.5 2.5 0 0 1 0-5zm-13 2a.5.5 0 1 0 0 1 .5.5 0 0 0 0-1zm13 0a.5.5 0 1 0 0 1 .5.5 0 0 0 0-1zM12 2a4 4 0 1 1 0 8 4 4 0 0 1 0-8zm0 2a2 2 0 1 0 0 4 2 2 0 0 0 0-4z"/>
    </g>
</svg>
